X:194
%%musicspace -10
T:Cock of the North
M:6/8
L:1/8
K:A
d | "A"c2c cBA | "A"cde "D"f2e | "A"c2c cBA | "E"B3 e2d | 
"A"c2c cBA | "A"cde "D"f2e | "A"c2c "E"BcB | "A"A3 A2 :|
|:f/g/ | "A"a2e "D"f2e | "A"a2e "D"f2e | "A"c2c cBA | "E"B3 B2 f/g/ | 
"A"a2e "D"f2e | "A"a2e "D"f2e | "A"c2c "E"BcB | "A"A3 A2 :|]

%%newpage

